;FLAVOR:Marlin
;TIME:26317
;Filament used: 25.2675m
;Layer height: 0.15
;MINX:20.7
;MINY:23.2
;MINZ:0.3
;MAXX:229.3
;MAXY:231.8
;MAXZ:40.95
;Generated with Cura_SteamEngine 4.13.1
M140 S60
M105
M190 S60
M104 S195
M105
M109 S195
M82 ;absolute extrusion mode
G21 ;metric values
G90 ;absolute positioning
M82 ;set extruder to absolute mode
M107 ;start with the fan off
G28 X0 Y0 ;move X/Y to min endstops
M300 S1318 P266
G28 Z0 ;move Z to min endstops
G0 Z0.2
G92 E0 ;zero the extruded length
G1 X40 E25 F400 ; Extrude 25mm of filament in a 4cm line. Reduce speed (F) if you have a nozzle smaller than 0.4mm!
G92 E0 ;zero the extruded length again
G1 E-1 F500 ; Retract a little
G1 X80 F4000 ; Quickly wipe away from the filament line
M117 ; Printing…
G5
G92 E0
G92 E0
G1 F2400 E-3.5
;LAYER_COUNT:272
;LAYER:0
M107
G1 F600 Z0.8
G0 F3600 X22.559 Y24.973 Z0.8
;TYPE:SKIRT
G1 F600 Z0.3
G1 F2400 E0
G1 F2100 X23.089 Y24.509 E0.03138
G1 X23.668 Y24.109 E0.06274
G1 X24.289 Y23.777 E0.09411
G1 X24.943 Y23.517 E0.12546
G1 X25.623 Y23.333 E0.15685
G1 X26.319 Y23.227 E0.18821
G1 X26.9 Y23.2 E0.21413
G1 X223.1 Y23.2 E8.95522
G1 X223.803 Y23.24 E8.98659
G1 X224.497 Y23.359 E9.01796
G1 X225.172 Y23.557 E9.0493
G1 X225.821 Y23.829 E9.08065
G1 X226.435 Y24.174 E9.11203
G1 X227.006 Y24.585 E9.14337
G1 X227.527 Y25.059 E9.17475
G1 X227.991 Y25.589 E9.20614
G1 X228.391 Y26.168 E9.23749
G1 X228.723 Y26.789 E9.26886
G1 X228.983 Y27.443 E9.30022
G1 X229.167 Y28.123 E9.3316
G1 X229.273 Y28.819 E9.36297
G1 X229.3 Y29.4 E9.38888
G1 X229.3 Y225.6 E18.12997
G1 X229.26 Y226.303 E18.16134
G1 X229.141 Y226.997 E18.19271
G1 X228.943 Y227.672 E18.22405
G1 X228.671 Y228.321 E18.2554
G1 X228.326 Y228.935 E18.28678
G1 X227.915 Y229.506 E18.31812
G1 X227.441 Y230.027 E18.3495
G1 X226.911 Y230.491 E18.38089
G1 X226.332 Y230.891 E18.41224
G1 X225.711 Y231.223 E18.44361
G1 X225.057 Y231.483 E18.47497
G1 X224.377 Y231.667 E18.50635
G1 X223.681 Y231.773 E18.53772
G1 X223.1 Y231.8 E18.56363
G1 X26.9 Y231.8 E27.30472
G1 X26.197 Y231.76 E27.33609
G1 X25.503 Y231.641 E27.36746
G1 X24.828 Y231.443 E27.3988
G1 X24.179 Y231.171 E27.43016
G1 X23.565 Y230.826 E27.46153
G1 X22.994 Y230.415 E27.49288
G1 X22.473 Y229.941 E27.52426
G1 X22.009 Y229.411 E27.55564
G1 X21.609 Y228.832 E27.58699
G1 X21.277 Y228.211 E27.61837
G1 X21.017 Y227.557 E27.64972
G1 X20.833 Y226.877 E27.6811
G1 X20.727 Y226.181 E27.71247
G1 X20.7 Y225.6 E27.73838
G1 X20.7 Y29.4 E36.47948
G1 X20.74 Y28.697 E36.51085
G1 X20.859 Y28.003 E36.54222
G1 X21.057 Y27.328 E36.57356
G1 X21.329 Y26.679 E36.60491
G1 X21.674 Y26.065 E36.63629
G1 X22.085 Y25.494 E36.66763
G1 X22.559 Y24.973 E36.69901
G0 F3600 X22.953 Y25.151
G1 F2100 X23.478 Y24.717 E36.72936
G1 X24.05 Y24.348 E36.75968
G1 X24.662 Y24.049 E36.79003
G1 X25.304 Y23.824 E36.82034
G1 X25.969 Y23.675 E36.8507
G1 X26.9 Y23.6 E36.89231
G1 X223.1 Y23.6 E45.6334
G1 X223.78 Y23.64 E45.66375
G1 X224.45 Y23.759 E45.69407
G1 X225.102 Y23.956 E45.72441
G1 X225.726 Y24.228 E45.75474
G1 X226.314 Y24.572 E45.78509
G1 X226.858 Y24.982 E45.81544
G1 X227.349 Y25.453 E45.84575
G1 X227.783 Y25.978 E45.8761
G1 X228.152 Y26.55 E45.90642
G1 X228.451 Y27.162 E45.93677
G1 X228.676 Y27.804 E45.96708
G1 X228.825 Y28.469 E45.99744
G1 X228.9 Y29.4 E46.03905
G1 X228.9 Y225.6 E54.78015
G1 X228.86 Y226.28 E54.81049
G1 X228.741 Y226.95 E54.84081
G1 X228.544 Y227.602 E54.87115
G1 X228.272 Y228.226 E54.90148
G1 X227.928 Y228.814 E54.93183
G1 X227.518 Y229.358 E54.96218
G1 X227.047 Y229.849 E54.99249
G1 X226.522 Y230.283 E55.02284
G1 X225.95 Y230.652 E55.05317
G1 X225.338 Y230.951 E55.08351
G1 X224.696 Y231.176 E55.11382
G1 X224.031 Y231.325 E55.14418
G1 X223.1 Y231.4 E55.18579
G1 X26.9 Y231.4 E63.92689
G1 X26.22 Y231.36 E63.95723
G1 X25.55 Y231.241 E63.98755
G1 X24.898 Y231.044 E64.0179
G1 X24.274 Y230.772 E64.04822
G1 X23.686 Y230.428 E64.07857
G1 X23.142 Y230.018 E64.10892
G1 X22.651 Y229.547 E64.13923
G1 X22.217 Y229.022 E64.16958
G1 X21.848 Y228.45 E64.19991
G1 X21.549 Y227.838 E64.23025
G1 X21.324 Y227.196 E64.26056
G1 X21.175 Y226.531 E64.29092
G1 X21.1 Y225.6 E64.33254
G1 X21.1 Y29.4 E73.07363
G1 X21.14 Y28.72 E73.10398
G1 X21.259 Y28.05 E73.13429
G1 X21.456 Y27.398 E73.16464
G1 X21.728 Y26.774 E73.19496
G1 X22.072 Y26.186 E73.22532
G1 X22.482 Y25.642 E73.25566
G1 X22.953 Y25.151 E73.28598
G0 F3600 X23.345 Y25.335
G1 F2100 X23.865 Y24.934 E73.31523
G1 X24.429 Y24.598 E73.34448
G1 X25.031 Y24.334 E73.37377
G1 X25.66 Y24.144 E73.40304
G1 X26.307 Y24.033 E73.43229
G1 X26.9 Y24 E73.45875
G1 X223.1 Y24 E82.19984
G1 X223.756 Y24.04 E82.22912
G1 X224.402 Y24.159 E82.25838
G1 X225.029 Y24.356 E82.28766
G1 X225.627 Y24.628 E82.31693
G1 X226.188 Y24.97 E82.34621
G1 X226.703 Y25.378 E82.37548
G1 X227.165 Y25.845 E82.40474
G1 X227.566 Y26.365 E82.434
G1 X227.902 Y26.929 E82.46325
G1 X228.166 Y27.531 E82.49253
G1 X228.356 Y28.16 E82.52181
G1 X228.467 Y28.807 E82.55105
G1 X228.5 Y29.4 E82.57751
G1 X228.5 Y225.6 E91.31861
G1 X228.46 Y226.256 E91.34789
G1 X228.341 Y226.902 E91.37715
G1 X228.144 Y227.529 E91.40643
G1 X227.872 Y228.127 E91.4357
G1 X227.53 Y228.688 E91.46497
G1 X227.122 Y229.203 E91.49424
G1 X226.655 Y229.665 E91.52351
G1 X226.135 Y230.066 E91.55277
G1 X225.571 Y230.402 E91.58202
G1 X224.969 Y230.666 E91.6113
G1 X224.34 Y230.856 E91.64057
G1 X223.693 Y230.967 E91.66982
G1 X223.1 Y231 E91.69628
G1 X26.9 Y231 E100.43737
G1 X26.244 Y230.96 E100.46665
G1 X25.598 Y230.841 E100.49592
G1 X24.971 Y230.644 E100.5252
G1 X24.373 Y230.372 E100.55447
G1 X23.812 Y230.03 E100.58374
G1 X23.297 Y229.622 E100.61301
G1 X22.835 Y229.155 E100.64228
G1 X22.434 Y228.635 E100.67153
G1 X22.098 Y228.071 E100.70078
G1 X21.834 Y227.469 E100.73007
G1 X21.644 Y226.84 E100.75934
G1 X21.533 Y226.193 E100.78859
G1 X21.5 Y225.6 E100.81505
G1 X21.5 Y29.4 E109.55614
G1 X21.54 Y28.744 E109.58542
G1 X21.659 Y28.098 E109.61469
G1 X21.856 Y27.471 E109.64397
G1 X22.128 Y26.873 E109.67324
G1 X22.47 Y26.312 E109.70251
G1 X22.878 Y25.797 E109.73178
G1 X23.345 Y25.335 E109.76105
G0 F3600 X23.273 Y25.959
G1 F2100 X23.736 Y25.529 E109.7892
G1 X24.25 Y25.16 E109.81739
G1 X24.806 Y24.86 E109.84553
G1 X25.395 Y24.632 E109.87367
G1 X26.009 Y24.48 E109.90185
G1 X26.9 Y24.4 E109.94171
G1 X223.1 Y24.4 E118.6828
G1 X223.731 Y24.44 E118.71097
G1 X224.352 Y24.559 E118.73914
G1 X224.952 Y24.756 E118.76728
G1 X225.524 Y25.027 E118.79547
G1 X226.056 Y25.367 E118.8236
G1 X226.541 Y25.773 E118.85178
G1 X226.971 Y26.236 E118.87993
G1 X227.34 Y26.75 E118.90812
G1 X227.64 Y27.306 E118.93627
G1 X227.868 Y27.895 E118.96441
G1 X228.02 Y28.509 E118.99259
G1 X228.1 Y29.4 E119.03244
G1 X228.1 Y225.6 E127.77354
G1 X228.06 Y226.231 E127.80171
G1 X227.941 Y226.852 E127.82988
G1 X227.744 Y227.452 E127.85801
G1 X227.473 Y228.024 E127.88621
G1 X227.133 Y228.556 E127.91434
G1 X226.727 Y229.041 E127.94252
G1 X226.264 Y229.471 E127.97067
G1 X225.75 Y229.84 E127.99886
G1 X225.194 Y230.14 E128.02701
G1 X224.605 Y230.368 E128.05514
G1 X223.991 Y230.52 E128.08333
G1 X223.1 Y230.6 E128.12318
G1 X26.9 Y230.6 E136.86427
G1 X26.269 Y230.56 E136.89244
G1 X25.648 Y230.441 E136.92061
G1 X25.048 Y230.244 E136.94875
G1 X24.476 Y229.973 E136.97695
G1 X23.944 Y229.633 E137.00508
G1 X23.459 Y229.227 E137.03325
G1 X23.029 Y228.764 E137.06141
G1 X22.66 Y228.25 E137.0896
G1 X22.36 Y227.694 E137.11774
G1 X22.132 Y227.105 E137.14588
G1 X21.98 Y226.491 E137.17406
G1 X21.9 Y225.6 E137.21392
G1 X21.9 Y29.4 E145.95501
G1 X21.94 Y28.769 E145.98318
G1 X22.059 Y28.148 E146.01135
G1 X22.256 Y27.548 E146.03948
G1 X22.527 Y26.976 E146.06768
G1 X22.867 Y26.444 E146.09581
G1 X23.273 Y25.959 E146.12399
G0 F3600 X23.667 Y26.128
G1 F2100 X24.125 Y25.731 E146.15099
G1 X24.632 Y25.398 E146.17802
G1 X25.178 Y25.134 E146.20504
G1 X25.754 Y24.945 E146.23205
G1 X26.35 Y24.833 E146.25906
G1 X26.9 Y24.8 E146.28361
G1 X223.1 Y24.8 E155.0247
G1 X223.705 Y24.84 E155.05172
G1 X224.299 Y24.959 E155.07871
G1 X224.873 Y25.155 E155.10573
G1 X225.416 Y25.426 E155.13277
G1 X225.919 Y25.765 E155.15979
G1 X226.372 Y26.167 E155.18677
G1 X226.769 Y26.625 E155.21378
G1 X227.102 Y27.132 E155.2408
G1 X227.366 Y27.678 E155.26782
G1 X227.555 Y28.254 E155.29483
G1 X227.667 Y28.85 E155.32185
G1 X227.7 Y29.4 E155.34639
G1 X227.7 Y225.6 E164.08749
G1 X227.66 Y226.205 E164.1145
G1 X227.541 Y226.799 E164.14149
G1 X227.345 Y227.373 E164.16851
G1 X227.074 Y227.916 E164.19555
G1 X226.735 Y228.419 E164.22257
G1 X226.333 Y228.872 E164.24956
G1 X225.875 Y229.269 E164.27656
G1 X225.368 Y229.602 E164.30358
G1 X224.822 Y229.866 E164.3306
G1 X224.246 Y230.055 E164.35761
G1 X223.65 Y230.167 E164.38463
G1 X223.1 Y230.2 E164.40918
G1 X26.9 Y230.2 E173.15027
G1 X26.295 Y230.16 E173.17728
G1 X25.701 Y230.041 E173.20427
G1 X25.127 Y229.845 E173.2313
G1 X24.584 Y229.574 E173.25833
G1 X24.081 Y229.235 E173.28536
G1 X23.628 Y228.833 E173.31234
G1 X23.231 Y228.375 E173.33934
G1 X22.898 Y227.868 E173.36637
G1 X22.634 Y227.322 E173.39339
G1 X22.445 Y226.746 E173.42039
G1 X22.333 Y226.15 E173.44741
G1 X22.3 Y225.6 E173.47196
G1 X22.3 Y29.4 E182.21305
G1 X22.34 Y28.795 E182.24007
G1 X22.459 Y28.201 E182.26706
G1 X22.655 Y27.627 E182.29408
G1 X22.926 Y27.084 E182.32112
G1 X23.265 Y26.581 E182.34814
G1 X23.667 Y26.128 E182.37512
G0 F3600 X24.06 Y26.306
G1 F2100 X24.513 Y25.944 E182.40096
G1 X25.011 Y25.649 E182.42674
G1 X25.545 Y25.424 E182.45256
G1 X26.105 Y25.276 E182.47837
G1 X26.9 Y25.2 E182.51395
G1 X223.1 Y25.2 E191.25504
G1 X223.678 Y25.24 E191.28085
G1 X224.245 Y25.359 E191.30666
G1 X224.79 Y25.555 E191.33247
G1 X225.303 Y25.824 E191.35827
G1 X225.774 Y26.161 E191.38408
G1 X226.194 Y26.56 E191.40988
G1 X226.556 Y27.013 E191.43572
G1 X226.851 Y27.511 E191.46151
G1 X227.076 Y28.045 E191.48732
G1 X227.224 Y28.605 E191.51313
G1 X227.3 Y29.4 E191.54871
G1 X227.3 Y225.6 E200.2898
G1 X227.26 Y226.178 E200.31561
G1 X227.141 Y226.745 E200.34143
G1 X226.945 Y227.29 E200.36723
G1 X226.676 Y227.803 E200.39304
G1 X226.339 Y228.274 E200.41884
G1 X225.94 Y228.694 E200.44465
G1 X225.487 Y229.056 E200.47048
G1 X224.989 Y229.351 E200.49627
G1 X224.455 Y229.576 E200.52209
G1 X223.895 Y229.724 E200.54789
G1 X223.1 Y229.8 E200.58347
G1 X26.9 Y229.8 E209.32456
G1 X26.322 Y229.76 E209.35038
G1 X25.755 Y229.641 E209.37619
G1 X25.21 Y229.445 E209.40199
G1 X24.697 Y229.176 E209.4278
G1 X24.226 Y228.839 E209.4536
G1 X23.806 Y228.44 E209.47941
G1 X23.444 Y227.987 E209.50524
G1 X23.149 Y227.489 E209.53103
G1 X22.924 Y226.955 E209.55685
G1 X22.776 Y226.395 E209.58265
G1 X22.7 Y225.6 E209.61823
G1 X22.7 Y29.4 E218.35933
G1 X22.74 Y28.822 E218.38514
G1 X22.859 Y28.255 E218.41095
G1 X23.055 Y27.71 E218.43675
G1 X23.324 Y27.197 E218.46256
G1 X23.661 Y26.726 E218.48836
G1 X24.06 Y26.306 E218.51417
G0 F3600 X24.057 Y26.878
G1 F2100 X24.452 Y26.494 E218.53871
G1 X24.898 Y26.17 E218.56327
G1 X25.386 Y25.915 E218.58781
G1 X25.906 Y25.732 E218.61237
G1 X26.447 Y25.627 E218.63692
G1 X26.9 Y25.6 E218.65714
G1 X223.1 Y25.6 E227.39823
G1 X223.65 Y25.64 E227.4228
G1 X224.188 Y25.759 E227.44734
G1 X224.703 Y25.955 E227.47189
G1 X225.184 Y26.223 E227.49643
G1 X225.622 Y26.557 E227.52097
G1 X226.006 Y26.952 E227.54551
G1 X226.33 Y27.398 E227.57007
G1 X226.585 Y27.886 E227.5946
G1 X226.768 Y28.406 E227.61916
G1 X226.873 Y28.947 E227.64371
G1 X226.9 Y29.4 E227.66393
G1 X226.9 Y225.6 E236.40502
G1 X226.86 Y226.15 E236.42959
G1 X226.741 Y226.688 E236.45414
G1 X226.545 Y227.203 E236.47869
G1 X226.277 Y227.684 E236.50322
G1 X225.943 Y228.122 E236.52776
G1 X225.548 Y228.506 E236.5523
G1 X225.102 Y228.83 E236.57686
G1 X224.614 Y229.085 E236.60139
G1 X224.094 Y229.268 E236.62595
G1 X223.553 Y229.373 E236.65051
G1 X223.1 Y229.4 E236.67072
G1 X26.9 Y229.4 E245.41182
G1 X26.35 Y229.36 E245.43638
G1 X25.812 Y229.241 E245.46093
G1 X25.297 Y229.045 E245.48548
G1 X24.816 Y228.777 E245.51001
G1 X24.378 Y228.443 E245.53455
G1 X23.994 Y228.048 E245.5591
G1 X23.67 Y227.602 E245.58366
G1 X23.415 Y227.114 E245.60819
G1 X23.232 Y226.594 E245.63275
G1 X23.127 Y226.053 E245.6573
G1 X23.1 Y225.6 E245.67752
G1 X23.1 Y29.4 E254.41861
G1 X23.14 Y28.85 E254.44318
G1 X23.259 Y28.312 E254.46773
G1 X23.455 Y27.797 E254.49228
G1 X23.723 Y27.316 E254.51681
G1 X24.057 Y26.878 E254.54135
G0 F3600 X24.452 Y27.04
G1 F2100 X24.842 Y26.694 E254.56458
G1 X25.28 Y26.411 E254.58781
G1 X25.755 Y26.198 E254.611
G1 X26.258 Y26.061 E254.63423
G1 X26.9 Y26 E254.66296
G1 X223.1 Y26 E263.40405
G1 X223.62 Y26.04 E263.42729
G1 X224.127 Y26.159 E263.45049
G1 X224.61 Y26.354 E263.47369
G1 X225.058 Y26.62 E263.49691
G1 X225.46 Y26.952 E263.52013
G1 X225.806 Y27.342 E263.54336
G1 X226.089 Y27.78 E263.56659
G1 X226.302 Y28.255 E263.58979
G1 X226.439 Y28.758 E263.61301
G1 X226.5 Y29.4 E263.64174
G1 X226.5 Y225.6 E272.38284
G1 X226.46 Y226.12 E272.40607
G1 X226.341 Y226.627 E272.42927
G1 X226.146 Y227.11 E272.45248
G1 X225.88 Y227.558 E272.47569
G1 X225.548 Y227.96 E272.49892
G1 X225.158 Y228.306 E272.52215
G1 X224.72 Y228.589 E272.54538
G1 X224.245 Y228.802 E272.56857
G1 X223.742 Y228.939 E272.5918
G1 X223.1 Y229 E272.62053
G1 X26.9 Y229 E281.36162
G1 X26.38 Y228.96 E281.38486
G1 X25.873 Y228.841 E281.40806
G1 X25.39 Y228.646 E281.43127
G1 X24.942 Y228.38 E281.45448
G1 X24.54 Y228.048 E281.47771
G1 X24.194 Y227.658 E281.50093
G1 X23.911 Y227.22 E281.52417
G1 X23.698 Y226.745 E281.54736
G1 X23.561 Y226.242 E281.57059
G1 X23.5 Y225.6 E281.59932
G1 X23.5 Y29.4 E290.34041
G1 X23.54 Y28.88 E290.36365
G1 X23.659 Y28.373 E290.38685
G1 X23.854 Y27.89 E290.41005
G1 X24.12 Y27.442 E290.43327
G1 X24.452 Y27.04 E290.45649
G0 F3600 X24.846 Y27.213
G1 F2100 X25.229 Y26.908 E290.47831
G1 X25.657 Y26.67 E290.50012
G1 X26.117 Y26.504 E290.52191
G1 X26.9 Y26.4 E290.5571
G1 X223.1 Y26.4 E299.2982
G1 X223.588 Y26.44 E299.32001
G1 X224.063 Y26.559 E299.34183
G1 X224.512 Y26.753 E299.36362
G1 X224.924 Y27.018 E299.38544
G1 X225.287 Y27.346 E299.40724
G1 X225.592 Y27.729 E299.42905
G1 X225.83 Y28.157 E299.45087
G1 X225.996 Y28.617 E299.47266
G1 X226.1 Y29.4 E299.50785
G1 X226.1 Y225.6 E308.24894
G1 X226.06 Y226.088 E308.27075
G1 X225.941 Y226.563 E308.29257
G1 X225.747 Y227.012 E308.31436
G1 X225.482 Y227.424 E308.33619
G1 X225.154 Y227.787 E308.35798
G1 X224.771 Y228.092 E308.3798
G1 X224.343 Y228.33 E308.40161
G1 X223.883 Y228.496 E308.4234
G1 X223.1 Y228.6 E308.45859
G1 X26.9 Y228.6 E317.19968
G1 X26.412 Y228.56 E317.2215
G1 X25.937 Y228.441 E317.24331
G1 X25.488 Y228.247 E317.26511
G1 X25.076 Y227.982 E317.28693
G1 X24.713 Y227.654 E317.30873
G1 X24.408 Y227.271 E317.33054
G1 X24.17 Y226.843 E317.35236
G1 X24.004 Y226.383 E317.37415
G1 X23.9 Y225.6 E317.40934
G1 X23.9 Y29.4 E326.15043
G1 X23.94 Y28.912 E326.17224
G1 X24.059 Y28.437 E326.19406
G1 X24.253 Y27.988 E326.21585
G1 X24.518 Y27.576 E326.23767
G1 X24.846 Y27.213 E326.25947
G0 F3600 X25.238 Y27.4
G1 F2100 X25.613 Y27.141 E326.27978
G1 X26.027 Y26.951 E326.30007
G1 X26.468 Y26.836 E326.32037
G1 X26.9 Y26.8 E326.33969
G1 X223.1 Y26.8 E335.08078
G1 X223.554 Y26.84 E335.10109
G1 X223.994 Y26.958 E335.12138
G1 X224.406 Y27.152 E335.14167
G1 X224.779 Y27.415 E335.162
G1 X225.1 Y27.738 E335.18229
G1 X225.359 Y28.113 E335.2026
G1 X225.549 Y28.527 E335.22289
G1 X225.664 Y28.968 E335.24319
G1 X225.7 Y29.4 E335.26251
G1 X225.7 Y225.6 E344.0036
G1 X225.66 Y226.054 E344.0239
G1 X225.542 Y226.494 E344.0442
G1 X225.348 Y226.906 E344.06449
G1 X225.085 Y227.279 E344.08482
G1 X224.762 Y227.6 E344.10511
G1 X224.387 Y227.859 E344.12541
G1 X223.973 Y228.049 E344.14571
G1 X223.532 Y228.164 E344.16601
G1 X223.1 Y228.2 E344.18533
G1 X26.9 Y228.2 E352.92642
G1 X26.446 Y228.16 E352.94672
